X: 39341
T: Tam Lin
R: reel
M: 4/4
K: Bminor
Bc|dcBA BcdB|G2BG dGBG|A2cA eAcA|dcde f2Bc|
dcBA BcdB|G2BG dGBG|A2cA eAcA|dcBA B2:|:Bc|
Bf~f2 dfBf|Bf~f2 dfBf|Ae~e2 ceAe|Ae~e2 fedc|
Bf~f2 dfBf|Bf~f2 fedc|~B3A GABc|dBcA F2:|

